X: 1
T: The Gift
R: jig
M: 6/8
L: 1/8
K: Amaj
|:E2 A cBA|e2 A cBA|=G2 A B2 d|=g2 e fed|
e2 A cBA|e2 A a2 e|=g2 d =GAB|1 d2 B f2 d:|2 dcB A3||
|:a2 e d2 A|=g2 d B2 =G|f2 d def|=g2 B Bcd|
e2 A c2 A|ece a2 e|=g2 d =GAB|1 d2 B f2 d:|2 dcB A3||

